src/lib/packages/icons/src/assets/filled/line-chart-dots-square.svg

<svg width="24" height="24" viewBox="0 0 24 24" fill="none" xmlns="http://www.w3.org/2000/svg">
<path d="M17.625 3H6.375C4.125 3 3 4.125 3 6.375V17.625C3 19.875 4.125 21 6.375 21H17.625C19.875 21 21 19.875 21 17.625V6.375C21 4.125 19.875 3 17.625 3ZM17.02 11.833C16.881 11.833 16.749 11.808 16.621 11.772L15.126 13.2671C15.161 13.3951 15.186 13.527 15.186 13.666C15.186 14.495 14.515 15.166 13.686 15.166C12.857 15.166 12.181 14.495 12.181 13.666C12.181 13.537 12.202 13.413 12.233 13.293L10.721 11.782C10.602 11.812 10.48 11.833 10.353 11.833C10.214 11.833 10.082 11.8079 9.95401 11.7729L8.45901 13.2671C8.49401 13.3951 8.51901 13.527 8.51901 13.666C8.51901 14.495 7.84801 15.166 7.01901 15.166C6.19001 15.166 5.51401 14.495 5.51401 13.666C5.51401 12.837 6.181 12.166 7.009 12.166H7.01901C7.14701 12.166 7.269 12.187 7.388 12.217L8.89999 10.7051C8.86899 10.5861 8.84799 10.462 8.84799 10.333C8.84799 9.50401 9.51499 8.83301 10.343 8.83301H10.353C11.182 8.83301 11.853 9.50401 11.853 10.333C11.853 10.472 11.828 10.6039 11.793 10.7319L13.285 12.2241C13.41 12.1901 13.54 12.166 13.676 12.166H13.686C13.814 12.166 13.936 12.187 14.055 12.217L15.567 10.7051C15.536 10.5851 15.515 10.462 15.515 10.333C15.515 9.50401 16.182 8.83301 17.01 8.83301H17.02C17.849 8.83301 18.52 9.50401 18.52 10.333C18.52 11.162 17.849 11.833 17.02 11.833Z" fill="currentColor"/>
</svg>

<svg xmlns="http://www.w3.org/2000/svg" width="24" height="24" fill="none"><path fill="currentColor" d="M17.625 3H6.375C4.125 3 3 4.125 3 6.375v11.25C3 19.875 4.125 21 6.375 21h11.25C19.875 21 21 19.875 21 17.625V6.375C21 4.125 19.875 3 17.625 3Zm-.605 8.833c-.139 0-.271-.025-.399-.061l-1.495 1.495c.035.128.06.26.06.399a1.504 1.504 0 0 1-3.005 0c0-.129.021-.253.052-.373l-1.512-1.511c-.119.03-.241.051-.368.051-.139 0-.271-.025-.399-.06l-1.495 1.494c.035.128.06.26.06.399a1.504 1.504 0 0 1-3.005 0c0-.829.667-1.5 1.495-1.5h.01c.128 0 .25.021.369.051L8.9 10.705a1.472 1.472 0 0 1-.052-.372c0-.829.667-1.5 1.495-1.5h.01a1.5 1.5 0 0 1 1.5 1.5c0 .139-.025.27-.06.399l1.492 1.492c.125-.034.255-.058.391-.058h.01c.128 0 .25.021.369.051l1.512-1.512a1.479 1.479 0 0 1-.052-.372c0-.829.667-1.5 1.495-1.5h.01a1.5 1.5 0 1 1 0 3Z"/></svg>
